X:1
T:5er
C:Stephan Steiner (stoney@euroots.com)
N:Bitte um eine kurze Notiz, wenn ihr eine Tonaufnahme von diesem St\"uck machen oder
N:es in notierter Form ver\"offentlichen wollt.
N:Please pass a note to Stoney if you intend to record or to publish this tune.
N:original url: www.wolfram.claranet.de
M:5/4
L:1/4
K:G
DGA|: B2D BA| B2B dG| e2d BG| A2D AB| c2d eg| f2f ed|1 gdc BG| A2D GA:|2 gdB AD| G2 Bef|
|: g2B gf| g2g fe| ded cA| B2B AB| c2cBc|1 e2e ge|c2c Bc| ege fd:|2 e2d ef| gdB AD| G2|]
